X:1
T:Lord Rendal
M:4/4
L:1/8
K:G
 G2 GG FE D2| B3/2 B/2 dB A4| G2 GG FE D2| B3/2 B/2 dB A4| A3/2 A/2 AB cB AB|\
 d2 GFG-F ED| G2 AF G2 Ac|B-A GF G4|
